src/Icons/logo-modal.svg

<svg width="72" height="31" viewBox="0 0 72 31" fill="none" xmlns="http://www.w3.org/2000/svg">
<path d="M3.90625 7.42188L2.71875 6.70312C1.97396 6.25 1.44271 5.80469 1.125 5.36719C0.8125 4.92448 0.65625 4.41667 0.65625 3.84375C0.65625 2.98438 0.953125 2.28646 1.54688 1.75C2.14583 1.21354 2.92188 0.945312 3.875 0.945312C4.78646 0.945312 5.6224 1.20052 6.38281 1.71094V3.48438C5.59635 2.72917 4.75 2.35156 3.84375 2.35156C3.33333 2.35156 2.91406 2.47135 2.58594 2.71094C2.25781 2.94531 2.09375 3.2474 2.09375 3.61719C2.09375 3.94531 2.21354 4.2526 2.45312 4.53906C2.69271 4.82552 3.08073 5.125 3.61719 5.4375L4.8125 6.14062C6.14583 6.93229 6.8125 7.94271 6.8125 9.17188C6.8125 10.0469 6.51823 10.7578 5.92969 11.3047C5.34635 11.8516 4.58594 12.125 3.64844 12.125C2.57031 12.125 1.58854 11.7943 0.703125 11.1328V9.14844C1.54688 10.2161 2.52344 10.75 3.63281 10.75C4.1224 10.75 4.52865 10.6146 4.85156 10.3438C5.17969 10.0677 5.34375 9.72396 5.34375 9.3125C5.34375 8.64583 4.86458 8.01562 3.90625 7.42188ZM16.2266 1.08594H17.7891V12H16.2266V7.25H10.0938V12H8.53125V1.08594H10.0938V5.80469H16.2266V1.08594ZM25.5625 0.929688C27.25 0.929688 28.6536 1.46354 29.7734 2.53125C30.8984 3.59896 31.4609 4.9375 31.4609 6.54688C31.4609 8.15625 30.8932 9.48958 29.7578 10.5469C28.6276 11.599 27.2005 12.125 25.4766 12.125C23.8307 12.125 22.4583 11.599 21.3594 10.5469C20.2656 9.48958 19.7188 8.16667 19.7188 6.57812C19.7188 4.94792 20.2708 3.59896 21.375 2.53125C22.4792 1.46354 23.875 0.929688 25.5625 0.929688ZM25.625 2.41406C24.375 2.41406 23.3464 2.80469 22.5391 3.58594C21.737 4.36719 21.3359 5.36458 21.3359 6.57812C21.3359 7.75521 21.7396 8.73438 22.5469 9.51562C23.3542 10.2969 24.3646 10.6875 25.5781 10.6875C26.7969 10.6875 27.8125 10.2891 28.625 9.49219C29.4427 8.69531 29.8516 7.70312 29.8516 6.51562C29.8516 5.35938 29.4427 4.38802 28.625 3.60156C27.8125 2.8099 26.8125 2.41406 25.625 2.41406ZM33.2891 12V1.07031H36.75C37.7917 1.07031 38.6224 1.35156 39.2422 1.91406C39.862 2.47656 40.1719 3.23177 40.1719 4.17969C40.1719 4.8151 40.013 5.3776 39.6953 5.86719C39.3776 6.35677 38.9427 6.71354 38.3906 6.9375C37.8385 7.15625 37.0469 7.26562 36.0156 7.26562H34.8594V12H33.2891ZM36.4766 2.46094H34.8594V5.875H36.5703C37.2057 5.875 37.6953 5.72656 38.0391 5.42969C38.3828 5.1276 38.5547 4.69792 38.5547 4.14062C38.5547 3.02083 37.862 2.46094 36.4766 2.46094ZM11.25 27.9297C11.25 28.862 10.9297 29.6068 10.2891 30.1641C9.65365 30.7214 8.76302 31 7.61719 31H1.35938V20.1719H6.59375C7.27083 20.1719 7.85938 20.237 8.35938 20.3672C8.86458 20.4974 9.27083 20.6771 9.57812 20.9062C9.88542 21.1302 10.1146 21.3958 10.2656 21.7031C10.4167 22.0104 10.4922 22.3464 10.4922 22.7109C10.4922 23.1068 10.4141 23.474 10.2578 23.8125C10.1016 24.1458 9.90625 24.4219 9.67188 24.6406C9.44271 24.8542 9.21094 25.0052 8.97656 25.0938C9.71615 25.3854 10.2786 25.7552 10.6641 26.2031C11.0547 26.6458 11.25 27.2214 11.25 27.9297ZM7.4375 23.2891C7.4375 22.7682 7.26562 22.4219 6.92188 22.25C6.57812 22.0781 6.04167 21.9922 5.3125 21.9922H4.625V24.5859H5.32812C6.07292 24.5859 6.60938 24.5 6.9375 24.3281C7.27083 24.1562 7.4375 23.8099 7.4375 23.2891ZM7.96875 27.7969C7.96875 26.8698 7.29688 26.4062 5.95312 26.4062H4.625V29.1797H5.95312C7.29688 29.1797 7.96875 28.7188 7.96875 27.7969ZM24.7656 31H21.4219L20.5391 28.8047H15.8359L14.9375 31H11.5938L16.3828 20.1719H19.9922L24.7656 31ZM19.7891 26.9219L18.2031 22.9688L16.6016 26.9219H19.7891ZM37.5938 31H33.6094L29.4688 25.9297V31H26.2031V20.1719H29.4688V25.0156L33.3906 20.1719H36.9375L32.9062 25.2422L37.5938 31ZM47.1797 31H39.0156V20.1719H47.0469V22.3438H42.2812V24.3281H46.8281V26.5078H42.2812V28.8203H47.1797V31ZM59.8594 31H56.3516L55.5 29.0781C55.1875 28.375 54.9062 27.862 54.6562 27.5391C54.4062 27.2109 54.1615 27.0026 53.9219 26.9141C53.6875 26.8203 53.3828 26.7734 53.0078 26.7734H52.6406V31H49.375V20.1719H54.9297C55.8255 20.1719 56.5599 20.3542 57.1328 20.7188C57.7057 21.0833 58.1172 21.526 58.3672 22.0469C58.6224 22.5677 58.75 23.0625 58.75 23.5312C58.75 24.0781 58.6432 24.5417 58.4297 24.9219C58.2214 25.2969 58 25.5703 57.7656 25.7422C57.5312 25.9141 57.2682 26.0781 56.9766 26.2344C57.3255 26.4375 57.612 26.6797 57.8359 26.9609C58.0651 27.237 58.375 27.7995 58.7656 28.6484L59.8594 31ZM55.4219 23.5938C55.4219 23.0938 55.2578 22.7448 54.9297 22.5469C54.6016 22.349 54.0677 22.25 53.3281 22.25H52.6406V24.8594H53.3438C54.1406 24.8594 54.6849 24.7734 54.9766 24.6016C55.2734 24.4245 55.4219 24.0885 55.4219 23.5938ZM71.4375 20.1719L67.1953 26.0391V31H63.9297V26.1016L59.6094 20.1719H63L65.4844 23.5781L67.9766 20.1719H71.4375Z" fill="#31261A"/>
</svg>

<svg width="72" height="31" fill="none" xmlns="http://www.w3.org/2000/svg"><path d="M3.906 7.422 2.72 6.703c-.745-.453-1.276-.898-1.594-1.336a2.576 2.576 0 0 1-.469-1.523c0-.86.297-1.558.89-2.094.6-.536 1.376-.805 2.329-.805.911 0 1.747.256 2.508.766v1.773c-.787-.755-1.633-1.132-2.54-1.132-.51 0-.929.12-1.257.359-.328.234-.492.536-.492.906 0 .328.12.636.36.922.239.287.627.586 1.163.899l1.196.703c1.333.791 2 1.802 2 3.03 0 .876-.295 1.587-.883 2.134-.584.547-1.344.82-2.282.82-1.078 0-2.06-.33-2.945-.992V9.148c.844 1.068 1.82 1.602 2.93 1.602.49 0 .896-.135 1.219-.406.328-.276.492-.62.492-1.031 0-.667-.48-1.297-1.438-1.891Zm12.32-6.336h1.563V12h-1.562V7.25h-6.133V12H8.53V1.086h1.563v4.719h6.133v-4.72ZM25.564.93c1.687 0 3.09.534 4.21 1.601 1.125 1.068 1.688 2.406 1.688 4.016 0 1.61-.568 2.943-1.703 4-1.13 1.052-2.557 1.578-4.281 1.578-1.646 0-3.019-.526-4.118-1.578-1.093-1.057-1.64-2.38-1.64-3.969 0-1.63.552-2.979 1.656-4.047C22.479 1.464 23.875.93 25.563.93Zm.062 1.484c-1.25 0-2.279.39-3.086 1.172-.802.781-1.203 1.779-1.203 2.992 0 1.177.404 2.156 1.21 2.938.808.78 1.819 1.171 3.032 1.171 1.219 0 2.235-.398 3.047-1.195.818-.797 1.227-1.789 1.227-2.976 0-1.157-.41-2.128-1.227-2.914-.813-.792-1.813-1.188-3-1.188ZM33.289 12V1.07h3.461c1.042 0 1.872.282 2.492.844.62.563.93 1.318.93 2.266 0 .635-.159 1.198-.477 1.687-.317.49-.752.847-1.304 1.07-.552.22-1.344.329-2.375.329h-1.157V12h-1.57Zm3.188-9.54h-1.618v3.415h1.711c.636 0 1.125-.148 1.47-.445.343-.302.515-.732.515-1.29 0-1.12-.693-1.68-2.078-1.68ZM11.25 27.93c0 .932-.32 1.677-.96 2.234-.636.557-1.527.836-2.673.836H1.36V20.172h5.235c.677 0 1.265.065 1.765.195.506.13.912.31 1.22.54.306.223.536.489.687.796.15.307.226.643.226 1.008a2.66 2.66 0 0 1-.82 1.93c-.23.213-.461.364-.695.453.74.291 1.302.661 1.687 1.11.39.442.586 1.017.586 1.726Zm-3.813-4.64c0-.522-.171-.868-.515-1.04-.344-.172-.88-.258-1.61-.258h-.687v2.594h.703c.745 0 1.281-.086 1.61-.258.333-.172.5-.518.5-1.039Zm.532 4.507c0-.927-.672-1.39-2.016-1.39H4.625v2.773h1.328c1.344 0 2.016-.461 2.016-1.383ZM24.766 31h-3.344l-.883-2.195h-4.703L14.937 31h-3.343l4.789-10.828h3.61L24.765 31Zm-4.977-4.078-1.586-3.953-1.601 3.953h3.187ZM37.594 31h-3.985l-4.14-5.07V31h-3.266V20.172h3.266v4.844l3.922-4.844h3.547l-4.032 5.07L37.594 31Zm9.586 0h-8.164V20.172h8.03v2.172h-4.765v1.984h4.547v2.18h-4.547v2.312h4.899V31Zm12.68 0h-3.508l-.852-1.922c-.313-.703-.594-1.216-.844-1.539-.25-.328-.495-.536-.734-.625-.234-.094-.54-.14-.914-.14h-.367V31h-3.266V20.172h5.555c.895 0 1.63.182 2.203.547.573.364.984.807 1.234 1.328.255.52.383 1.015.383 1.484 0 .547-.107 1.01-.32 1.39-.209.376-.43.65-.664.821a6.626 6.626 0 0 1-.79.492c.35.203.636.446.86.727.23.276.539.838.93 1.687L59.859 31Zm-4.438-7.406c0-.5-.164-.85-.492-1.047-.328-.198-.862-.297-1.602-.297h-.687v2.61h.703c.797 0 1.34-.087 1.633-.258.296-.178.445-.514.445-1.008Zm16.016-3.422-4.243 5.867V31H63.93v-4.898l-4.32-5.93H63l2.484 3.406 2.493-3.406h3.46Z" fill="#31261A"/></svg>
